pics/addressbook/icons/scalable/offline.svg

<?xml version="1.0" encoding="UTF-8" standalone="no"?>
<!-- Generator: Adobe Illustrator 12.0.0, SVG Export Plug-In . SVG Version: 6.00 Build 51448)  -->
<svg
   xmlns:dc="http://purl.org/dc/elements/1.1/"
   xmlns:cc="http://web.resource.org/cc/"
   xmlns:rdf="http://www.w3.org/1999/02/22-rdf-syntax-ns#"
   xmlns:svg="http://www.w3.org/2000/svg"
   xmlns="http://www.w3.org/2000/svg"
   xmlns:sodipodi="http://sodipodi.sourceforge.net/DTD/sodipodi-0.dtd"
   xmlns:inkscape="http://www.inkscape.org/namespaces/inkscape"
   version="1.1"
   id="Í_xBC__xB2_ã_x5F_1"
   width="18.428"
   height="20.612"
   viewBox="0 0 18.428 20.612"
   style="overflow:visible;enable-background:new 0 0 18.428 20.612;"
   xml:space="preserve"
   sodipodi:version="0.32"
   inkscape:version="0.44.1"
   sodipodi:docname="offline.svg"
   sodipodi:docbase="/home/mgoddard/depot/qtopia/4.3/pics/addressbook/icons/scalable"><metadata
   id="metadata47"><rdf:RDF><cc:Work
       rdf:about=""><dc:format>image/svg+xml</dc:format><dc:type
         rdf:resource="http://purl.org/dc/dcmitype/StillImage" /></cc:Work></rdf:RDF></metadata><defs
   id="defs45">
	
		
	
		
	
	
	
	
	<radialGradient
   gradientUnits="userSpaceOnUse"
   r="6.2654"
   cy="2.1147"
   cx="6.9458"
   id="XMLID_2_">
		<stop
   id="stop18"
   style="stop-color:#f4f4f4;stop-opacity:1;"
   offset="0.0056" />
		<stop
   id="stop20"
   style="stop-color:#e2e2e2;stop-opacity:1;"
   offset="0.0796" />
		<stop
   id="stop22"
   style="stop-color:#d9d9d9;stop-opacity:1;"
   offset="0.1842" />
		<stop
   id="stop24"
   style="stop-color:#d9d9d9;stop-opacity:1;"
   offset="0.25279999" />
		<stop
   id="stop26"
   style="stop-color:#d2d2d2;stop-opacity:1;"
   offset="0.56300002" />
		<stop
   id="stop28"
   style="stop-color:#cecece;stop-opacity:1;"
   offset="0.82300001" />
		<stop
   id="stop30"
   style="stop-color:#c8c8c8;stop-opacity:1;"
   offset="1" />
	</radialGradient>
	
	
	
	
	
	
</defs><sodipodi:namedview
   inkscape:window-height="617"
   inkscape:window-width="869"
   inkscape:pageshadow="2"
   inkscape:pageopacity="0.0"
   guidetolerance="10.0"
   gridtolerance="10.0"
   objecttolerance="10.0"
   borderopacity="1.0"
   bordercolor="#666666"
   pagecolor="#ffffff"
   id="base"
   inkscape:zoom="13.962375"
   inkscape:cx="2.7004199"
   inkscape:cy="12.024932"
   inkscape:window-x="723"
   inkscape:window-y="506"
   inkscape:current-layer="Í_xBC__xB2_ã_x5F_1" />
<g
   id="g3176"><ellipse
     transform="matrix(-0.5635,0.8261,-0.8261,-0.5635,15.3635,16.9042)"
     style="fill:#a7acb1;stroke:#7f868a;stroke-width:0.5;stroke-opacity:1;fill-opacity:1"
     cx="3.2160001"
     cy="12.511"
     rx="4.836"
     ry="1.416"
     id="ellipse5"
     sodipodi:cx="3.2160001"
     sodipodi:cy="12.511"
     sodipodi:rx="4.836"
     sodipodi:ry="1.416" /><ellipse
     transform="matrix(0.7234,0.6904,-0.6904,0.7234,12.1838,-6.7727)"
     style="fill:#a9afb1;stroke:#7f868a;stroke-width:0.5;stroke-opacity:1;fill-opacity:1"
     cx="14.545"
     cy="11.82"
     rx="4.835"
     ry="1.416"
     id="ellipse7"
     sodipodi:cx="14.545"
     sodipodi:cy="11.82"
     sodipodi:rx="4.835"
     sodipodi:ry="1.416" /><path
     style="fill:white;stroke:#7f868a;stroke-width:0.5;stroke-opacity:1"
     d="M 14.718,19.212 C 13.059,21.133 4.443,20.299 2.725,19.107 C 2.06,18.647 3.113,10.404 5.807,8.435 C 7.81,6.971 9.809,7.172 11.506,8.331 C 14.044,10.067 15.262,18.581 14.718,19.212 z "
     id="path9" /><polygon
     style="fill:#a9b1b2;stroke:#7f868a;stroke-width:0.5;stroke-opacity:1;fill-opacity:1"
     points="9.07,12.813 7.464,12.852 8.06,9.626 8.825,9.626 9.07,12.813 "
     id="polygon11" /><path
     style="fill:#a7acb1;stroke:#7f868a;stroke-width:0.5;stroke-opacity:1;fill-opacity:1"
     d="M 8.121,13.306 C 8.121,13.306 6.231,9.347 6.325,8.193 C 3.079,10.198 1.075,17.683 2.767,19.107 C 3.759,19.943 8.691,20.299 8.691,20.299 L 8.121,13.306 z "
     id="path13" /><path
     style="fill:#a9afb1;stroke:#7f868a;stroke-width:0.5;stroke-opacity:1;fill-opacity:1"
     d="M 8.018,13.133 C 8.018,13.133 11.082,9.376 10.927,8.036 C 14.241,9.927 15.659,17.32 14.804,19.005 C 13.936,20.713 7.887,20.324 7.887,20.324 L 8.018,13.133 z "
     id="path15" /><path
     style="fill:#a9afb1;fill-opacity:1;stroke:#7f868a;stroke-width:0.48120794;stroke-linecap:square;stroke-opacity:1"
     d="M 11.146374,8.296604 C 11.170885,8.347694 11.903396,10.562249 11.903396,10.562249 L 10.901261,10.841279 L 10.730624,12.138179 L 8.4605008,12.928109 C 8.4605008,12.928109 10.633522,9.9766788 11.146374,8.296604 z "
     id="path34" /><path
     style="fill:#a7acb1;fill-opacity:1;stroke:#7f868a;stroke-width:0.47319931;stroke-linecap:square;stroke-linejoin:miter;stroke-opacity:1"
     d="M 6.1475063,8.1365996 C 6.1149741,8.180926 5.0125996,10.077321 5.0125996,10.077321 L 5.9290762,10.545638 L 5.8556466,11.82821 L 7.6635035,12.791825 C 7.6635035,12.791825 6.3334041,9.8556894 6.1475063,8.1365996 z "
     id="path36" /><ellipse
     style="fill:white;stroke:#7f868a;stroke-width:0.5;stroke-opacity:1"
     cx="8.552"
     cy="14.743"
     rx="0.285"
     ry="0.27200001"
     id="ellipse38"
     sodipodi:cx="8.552"
     sodipodi:cy="14.743"
     sodipodi:rx="0.285"
     sodipodi:ry="0.27200001" /><ellipse
     style="fill:white;stroke:#7f868a;stroke-width:0.5;stroke-opacity:1"
     cx="8.5530005"
     cy="17.385"
     rx="0.31099999"
     ry="0.271"
     id="ellipse40"
     sodipodi:cx="8.5530005"
     sodipodi:cy="17.385"
     sodipodi:rx="0.31099999"
     sodipodi:ry="0.271" /><polygon
     style="fill:#a9b1b2;stroke:#7f868a;stroke-width:0.5;stroke-opacity:1;fill-opacity:1"
     points="8.786,9.563 8.086,9.563 7.905,8.746 8.941,8.746 8.786,9.563 "
     id="polygon42" /><circle
     style="fill:url(#XMLID_2_);stroke:#7f868a;stroke-width:0.5;stroke-opacity:1"
     cx="8.7770004"
     cy="4.4980001"
     r="4.2480001"
     id="circle32"
     sodipodi:cx="8.7770004"
     sodipodi:cy="4.4980001"
     sodipodi:rx="4.2480001"
     sodipodi:ry="4.2480001" /></g>
</svg>

<?xml version="1.0" encoding="iso-8859-1"?>
<!-- Generator: Adobe Illustrator 12.0.0, SVG Export Plug-In . SVG Version: 6.00 Build 51448)  -->
<!DOCTYPE svg PUBLIC "-//W3C//DTD SVG 1.1//EN" "http://www.w3.org/Graphics/SVG/1.1/DTD/svg11.dtd" [
	<!ENTITY ns_svg "http://www.w3.org/2000/svg">
	<!ENTITY ns_xlink "http://www.w3.org/1999/xlink">
]>
<svg  version="1.1" id="&#xCD;_xBC__xB2_&#xE3;_x5F_1" xmlns="&ns_svg;" xmlns:xlink="&ns_xlink;" width="18.428" height="20.612"
	 viewBox="0 0 18.428 20.612" style="overflow:visible;enable-background:new 0 0 18.428 20.612;" xml:space="preserve">
<g>
	
		<ellipse transform="matrix(-0.5635 0.8261 -0.8261 -0.5635 15.3635 16.9042)" style="fill:#9299A0;stroke:#000000;stroke-width:0.5;" cx="3.216" cy="12.511" rx="4.836" ry="1.416"/>
	
		<ellipse transform="matrix(0.7234 0.6904 -0.6904 0.7234 12.1838 -6.7727)" style="fill:#656D70;stroke:#000000;stroke-width:0.5;" cx="14.545" cy="11.82" rx="4.835" ry="1.416"/>
	<path style="fill:#FFFFFF;stroke:#000000;stroke-width:0.5;" d="M14.718,19.212c-1.659,1.921-10.275,1.087-11.993-0.105
		c-0.665-0.46,0.388-8.703,3.082-10.672c2.003-1.464,4.002-1.263,5.699-0.104C14.044,10.067,15.262,18.581,14.718,19.212z"/>
	<polygon style="fill:#505859;stroke:#000000;stroke-width:0.5;" points="9.07,12.813 7.464,12.852 8.06,9.626 8.825,9.626 	"/>
	<path style="fill:#8A9197;stroke:#000000;stroke-width:0.5;" d="M8.121,13.306c0,0-1.89-3.959-1.796-5.113
		c-3.246,2.005-5.25,9.49-3.558,10.914c0.992,0.836,5.924,1.192,5.924,1.192L8.121,13.306z"/>
	<path style="fill:#656D70;stroke:#000000;stroke-width:0.5;" d="M8.018,13.133c0,0,3.064-3.757,2.909-5.097
		c3.314,1.891,4.732,9.284,3.877,10.969c-0.868,1.708-6.917,1.319-6.917,1.319L8.018,13.133z"/>
	<radialGradient id="XMLID_2_" cx="6.9458" cy="2.1147" r="6.2654" gradientUnits="userSpaceOnUse">
		<stop  offset="0.0056" style="stop-color:#F5EACE"/>
		<stop  offset="0.0796" style="stop-color:#F8E6BF"/>
		<stop  offset="0.1842" style="stop-color:#F9E1AE"/>
		<stop  offset="0.2528" style="stop-color:#FAE0A7"/>
		<stop  offset="0.563" style="stop-color:#E3C382"/>
		<stop  offset="0.823" style="stop-color:#D6B36E"/>
		<stop  offset="1" style="stop-color:#D2AD67"/>
	</radialGradient>
	<circle style="fill:url(#XMLID_2_);stroke:#000000;stroke-width:0.5;" cx="8.777" cy="4.498" r="4.248"/>
	<path style="fill:#656D70;stroke:#000000;stroke-width:0.5;" d="M11.091,8.306c0.026,0.052,0.803,2.306,0.803,2.306l-1.063,0.284
		l-0.181,1.32L8.242,13.02C8.242,13.02,10.547,10.016,11.091,8.306z"/>
	<path style="fill:#8A9197;stroke:#000000;stroke-width:0.5;" d="M6.247,8.15c-0.035,0.046-1.221,2.014-1.221,2.014l0.986,0.486
		l-0.079,1.331l1.945,1C7.878,12.981,6.447,9.934,6.247,8.15z"/>
	<ellipse style="fill:#FFFFFF;stroke:#888F95;stroke-width:0.5;" cx="8.552" cy="14.743" rx="0.285" ry="0.272"/>
	<ellipse style="fill:#FFFFFF;stroke:#888F95;stroke-width:0.5;" cx="8.553" cy="17.385" rx="0.311" ry="0.271"/>
	<polygon style="fill:#505859;stroke:#000000;stroke-width:0.5;" points="8.786,9.563 8.086,9.563 7.905,8.746 8.941,8.746 	"/>
</g>
</svg>
